X:3943
L:1/16
M:4/4
K:A
 A2ce B2Be | c2ce d2de | c2ce B2Be | A2ce E2GB | A2ce B2Be | c2ce d2de | cce2 B2Be | A2c2 A4 || 
 A2ce EGBe | A2ce (dB)Be | A2ce EGBe | A2c2 A2E2 | A2ce EGBe | A2ce (dB)Be | A2ce EGBe | A2c2 A4 :|

